packages/icons/src/discord-logo.svg

<svg width="15" height="15" viewBox="0 0 15 15" fill="none" xmlns="http://www.w3.org/2000/svg">
  <g clip-path="url(#clip0_16200_18)">
    <path
      fill-rule="evenodd"
      clip-rule="evenodd"
      d="M5.07761 1.80608C5.03403 1.79923 4.98973 1.79818 4.94586 1.80296C4.10147 1.89492 2.81887 2.34979 2.06162 2.7605C2.00944 2.7888 1.96272 2.82617 1.92364 2.87085C1.60757 3.23223 1.32199 3.82069 1.09852 4.37438C0.868566 4.94411 0.678122 5.54455 0.569535 5.97869C0.216388 7.39061 0.0225233 9.08576 -0.00250283 10.6922C-0.00380683 10.7759 0.0159279 10.8586 0.0548912 10.9327C0.358561 11.5102 1.00888 12.0436 1.65781 12.4324C2.31435 12.8257 3.08127 13.1377 3.70193 13.1977C3.85765 13.2127 4.01144 13.154 4.11752 13.039C4.2733 12.8701 4.53643 12.4779 4.73419 12.1753C4.8395 12.0141 4.93692 11.8616 5.00792 11.7495C5.01277 11.7419 5.01749 11.7344 5.02209 11.7271C5.69448 11.8888 6.51526 12.0001 7.50002 12.0001C8.48373 12.0001 9.30381 11.889 9.97579 11.7276C9.98029 11.7347 9.98491 11.742 9.98964 11.7495C10.0606 11.8616 10.1581 12.0141 10.2634 12.1753C10.4611 12.4779 10.7243 12.8701 10.88 13.039C10.9861 13.154 11.1399 13.2127 11.2956 13.1977C11.9163 13.1377 12.6832 12.8257 13.3398 12.4324C13.9887 12.0436 14.639 11.5102 14.9427 10.9327C14.9816 10.8586 15.0014 10.7759 15.0001 10.6922C14.975 9.08576 14.7812 7.39061 14.428 5.97869C14.3194 5.54455 14.129 4.94411 13.899 4.37438C13.6756 3.82069 13.39 3.23223 13.0739 2.87085C13.0348 2.82617 12.9881 2.7888 12.9359 2.7605C12.1787 2.34979 10.8961 1.89492 10.0517 1.80296C10.0078 1.79818 9.96353 1.79923 9.91994 1.80608C9.70897 1.83923 9.5282 1.94775 9.39603 2.04759C9.25626 2.15318 9.12674 2.28293 9.01518 2.41385C8.85191 2.60546 8.69357 2.83966 8.59255 3.06167C8.25187 3.02276 7.88714 3 7.5 3C7.11199 3 6.74647 3.02286 6.40513 3.06193C6.30411 2.83985 6.14571 2.60553 5.98238 2.41385C5.87082 2.28293 5.7413 2.15318 5.60153 2.04759C5.46936 1.94775 5.28859 1.83923 5.07761 1.80608ZM10.9661 11.4207C11.0082 11.4862 11.0536 11.5564 11.1005 11.6283C11.2306 11.8274 11.3589 12.0178 11.4593 12.1584C11.8511 12.0682 12.3479 11.8609 12.8258 11.5746C13.3655 11.2512 13.791 10.881 13.9976 10.5682C13.9647 9.06491 13.779 7.50506 13.4579 6.22133C13.3609 5.83337 13.1849 5.27687 12.9717 4.74866C12.7717 4.25316 12.5596 3.83538 12.3749 3.59492C11.728 3.26047 10.7131 2.90749 10.0495 2.81068C10.0364 2.81863 10.0195 2.82985 9.9988 2.84551C9.93215 2.89586 9.85474 2.97041 9.77633 3.06243C9.72436 3.12342 9.67815 3.18461 9.63842 3.2425C10.006 3.32847 10.3305 3.42907 10.6084 3.5301C10.9749 3.66339 11.2607 3.7976 11.4578 3.90046C11.5565 3.95191 11.633 3.99558 11.6866 4.02748C11.7133 4.04343 11.7344 4.05645 11.7495 4.06603L11.7679 4.07776L11.7737 4.08158L11.7758 4.08296L11.7767 4.08351L11.777 4.08376C11.7772 4.08387 11.7773 4.08397 11.5147 4.47796L11.7774 4.08398C12.0071 4.23715 12.0692 4.54759 11.916 4.77735C11.7631 5.00667 11.4536 5.06896 11.224 4.9169L11.2236 4.91668L11.2232 4.9164L11.223 4.91624L11.2229 4.91622C11.2228 4.91612 11.2226 4.91602 11.5 4.5L11.2226 4.91602L11.2155 4.91151C11.2075 4.90644 11.1939 4.89797 11.1748 4.88658C11.1365 4.86379 11.0764 4.82934 10.9953 4.78704C10.8331 4.7024 10.5876 4.58661 10.2666 4.4699C9.62475 4.23649 8.68273 4 7.5 4C6.31727 4 5.37525 4.23649 4.73337 4.4699C4.4124 4.58661 4.16694 4.7024 4.00472 4.78704C3.92365 4.82934 3.8635 4.86379 3.82524 4.88658C3.80612 4.89797 3.79248 4.90644 3.78445 4.91151L3.77664 4.9165L3.77679 4.9164C3.77688 4.91634 3.77697 4.91628 3.77706 4.91622L3.77679 4.9164L3.77679 4.9164C3.54708 5.0691 3.23703 5.00693 3.08398 4.77735C2.9308 4.54759 2.99288 4.23715 3.22265 4.08398L3.5 4.5C3.22265 4.08398 3.22281 4.08387 3.22298 4.08376L3.22334 4.08351L3.22418 4.08296L3.22627 4.08158L3.23212 4.07776L3.25046 4.06603C3.26562 4.05645 3.28666 4.04343 3.31343 4.02748C3.36697 3.99558 3.44354 3.95191 3.54215 3.90046C3.73931 3.7976 4.0251 3.66339 4.39162 3.5301C4.66894 3.42926 4.99274 3.32886 5.35947 3.24299C5.31967 3.18496 5.27335 3.12359 5.22123 3.06243C5.14282 2.97041 5.06541 2.89586 4.99875 2.84551C4.97802 2.82985 4.96112 2.81863 4.94803 2.81068C4.28449 2.90749 3.26952 3.26047 2.62267 3.59492C2.43795 3.83538 2.22582 4.25316 2.02583 4.74866C1.81264 5.27687 1.63669 5.83337 1.53965 6.22133C1.21857 7.50506 1.03284 9.06491 0.99999 10.5682C1.20654 10.881 1.63205 11.2512 2.17176 11.5746C2.64965 11.8609 3.14642 12.0682 3.53828 12.1584C3.63866 12.0178 3.76696 11.8274 3.89705 11.6283C3.94418 11.5561 3.98976 11.4857 4.03201 11.4199C3.93683 11.3829 3.84649 11.3454 3.76089 11.3077C3.36048 11.1312 3.06623 10.9522 2.86724 10.8123C2.7678 10.7425 2.69228 10.6825 2.63928 10.6376C2.61278 10.6152 2.59191 10.5965 2.5765 10.5823C2.5688 10.5752 2.56246 10.5692 2.55746 10.5644L2.55097 10.5581L2.54847 10.5557L2.54741 10.5546L2.54692 10.5541C2.54669 10.5539 2.54647 10.5537 2.90002 10.2001L2.54647 10.5537C2.35121 10.3584 2.35121 10.0418 2.54647 9.84657C2.74071 9.65233 3.05498 9.65131 3.25048 9.8435L3.25435 9.84712C3.2596 9.85196 3.26989 9.86124 3.28538 9.87436C3.31636 9.90059 3.36819 9.94215 3.44218 9.99415C3.59007 10.0981 3.82706 10.244 4.16415 10.3926C4.83659 10.6889 5.91776 11.0001 7.50002 11.0001C9.08229 11.0001 10.1635 10.6889 10.8359 10.3926C11.173 10.244 11.41 10.0981 11.5579 9.99415C11.6319 9.94215 11.6837 9.90058 11.7147 9.87436C11.7302 9.86124 11.7405 9.85196 11.7457 9.84712L11.7496 9.84351C11.9451 9.65131 12.2593 9.65233 12.4536 9.84657C12.6488 10.0418 12.6488 10.3584 12.4536 10.5537L12.105 10.2051C12.4536 10.5537 12.4534 10.5539 12.4531 10.5541L12.4526 10.5546L12.4516 10.5557L12.4491 10.5581L12.4426 10.5644C12.4376 10.5692 12.4313 10.5752 12.4235 10.5823C12.4081 10.5965 12.3873 10.6152 12.3608 10.6376C12.3078 10.6825 12.2323 10.7425 12.1328 10.8123C11.9338 10.9522 11.6396 11.1312 11.2392 11.3077C11.153 11.3457 11.062 11.3835 10.9661 11.4207ZM4.08049 7.01221C4.32412 6.74984 4.65476 6.60162 5.00007 6.59998C5.34538 6.60162 5.67603 6.74984 5.91966 7.01221C6.16329 7.27459 6.30007 7.62974 6.30007 7.99998C6.30007 8.37021 6.16329 8.72536 5.91966 8.98774C5.67603 9.25011 5.34538 9.39833 5.00007 9.39998C4.65476 9.39833 4.32412 9.25011 4.08049 8.98774C3.83685 8.72536 3.70007 8.37021 3.70007 7.99998C3.70007 7.62974 3.83685 7.27459 4.08049 7.01221ZM9.99885 6.59998C9.65354 6.60162 9.3229 6.74984 9.07926 7.01221C8.83563 7.27459 8.69885 7.62974 8.69885 7.99998C8.69885 8.37021 8.83563 8.72536 9.07926 8.98774C9.3229 9.25011 9.65354 9.39833 9.99885 9.39998C10.3442 9.39833 10.6748 9.25011 10.9184 8.98774C11.1621 8.72536 11.2989 8.37021 11.2989 7.99998C11.2989 7.62974 11.1621 7.27459 10.9184 7.01221C10.6748 6.74984 10.3442 6.60162 9.99885 6.59998Z"
      fill="currentColor"
    />
  </g>
  <defs>
    <clipPath id="clip0_16200_18"><path fill="currentColor" d="M0 0H15V15H0z" /></clipPath>
  </defs>
</svg>

<svg xmlns="http://www.w3.org/2000/svg" width="15" height="15" fill="none"><g clip-path="url(#a)"><path fill="currentColor" fill-rule="evenodd" d="M5.078 1.806a.5.5 0 0 0-.132-.003c-.845.092-2.127.547-2.884.958a.5.5 0 0 0-.138.11c-.316.361-.602.95-.825 1.503-.23.57-.42 1.17-.53 1.605C.217 7.39.024 9.086-.002 10.692a.5.5 0 0 0 .058.24c.304.578.954 1.112 1.603 1.5.656.394 1.423.706 2.044.766a.5.5 0 0 0 .416-.159c.155-.169.418-.561.616-.864.106-.16.203-.313.274-.426l.014-.022C5.694 11.89 6.515 12 7.5 12s1.804-.111 2.476-.272l.014.021c.07.113.168.265.273.426.198.303.461.695.617.864a.5.5 0 0 0 .416.159c.62-.06 1.387-.372 2.044-.766.649-.388 1.299-.922 1.603-1.5a.5.5 0 0 0 .057-.24c-.025-1.606-.219-3.301-.572-4.713a13 13 0 0 0-.529-1.605c-.223-.553-.509-1.142-.825-1.503a.5.5 0 0 0-.138-.11c-.757-.411-2.04-.866-2.884-.958a.5.5 0 0 0-.132.003 1.2 1.2 0 0 0-.524.242 2.9 2.9 0 0 0-.803 1.014 9.6 9.6 0 0 0-2.188 0 2.9 2.9 0 0 0-.803-1.014 1.2 1.2 0 0 0-.524-.242m5.888 9.615.135.207c.13.2.258.39.358.53.392-.09.889-.297 1.367-.583.54-.324.965-.694 1.172-1.007-.033-1.503-.219-3.063-.54-4.347a12 12 0 0 0-.486-1.472c-.2-.496-.412-.914-.597-1.154-.647-.335-1.662-.688-2.325-.784l-.051.035a1.5 1.5 0 0 0-.223.216 2 2 0 0 0-.138.18c.368.086.693.187.97.288.367.133.653.268.85.37a5 5 0 0 1 .291.166l.019.012.006.004.002.001h.001l-.262.395.262-.394a.5.5 0 0 1-.553.833h-.001L11.5 4.5l-.277.416-.008-.004-.04-.025a4 4 0 0 0-.18-.1 6 6 0 0 0-.728-.317A8.1 8.1 0 0 0 7.5 4a8.1 8.1 0 0 0-2.767.47 6 6 0 0 0-.728.317 4 4 0 0 0-.22.125l-.008.005a.5.5 0 0 1-.554-.833L3.5 4.5l-.277-.416.001-.001.002-.001.006-.004.018-.012.063-.039a5 5 0 0 1 .23-.127 7 7 0 0 1 .849-.37c.277-.1.6-.201.967-.287a2 2 0 0 0-.138-.18A1.5 1.5 0 0 0 5 2.845l-.051-.035c-.664.096-1.678.45-2.325.784-.185.24-.397.658-.597 1.154a12 12 0 0 0-.486 1.472c-.321 1.284-.507 2.844-.54 4.347.207.313.632.683 1.172 1.007.478.286.974.493 1.366.583a17 17 0 0 0 .494-.738 7 7 0 0 1-.271-.112 5.2 5.2 0 0 1-.894-.496 3 3 0 0 1-.31-.248l-.006-.006-.003-.002v-.001h-.001L2.9 10.2l-.354.354a.5.5 0 0 1 .704-.71l.004.003.031.027q.046.041.157.12c.148.104.385.25.722.399.673.296 1.754.607 3.336.607s2.664-.311 3.336-.607c.337-.149.574-.295.722-.399a2 2 0 0 0 .188-.147l.004-.003a.5.5 0 0 1 .704.71l-.349-.349c.349.349.348.349.348.35h-.001l-.003.003-.006.006a1 1 0 0 1-.082.074 3 3 0 0 1-.228.174c-.2.14-.493.32-.894.496a7 7 0 0 1-.273.113M4.08 7.012c.244-.262.575-.41.92-.412.345.002.676.15.92.412.243.263.38.618.38.988s-.137.725-.38.988c-.244.262-.575.41-.92.412a1.26 1.26 0 0 1-.92-.412A1.45 1.45 0 0 1 3.7 8c0-.37.137-.725.38-.988M10 6.6c-.345.002-.676.15-.92.412-.243.263-.38.618-.38.988s.137.725.38.988c.244.262.575.41.92.412.345-.002.676-.15.92-.412.243-.263.38-.618.38-.988s-.137-.725-.38-.988A1.26 1.26 0 0 0 10 6.6" clip-rule="evenodd"/></g><defs><clipPath id="a"><path fill="currentColor" d="M0 0h15v15H0z"/></clipPath></defs></svg>
